icon-svg/twinkly-candies-stars.svg

<svg xmlns="http://www.w3.org/2000/svg" fill="#44739e" viewBox="0 0 24 24"><path d="m21.424 16.784-.1-.625-.438.446-.632-.115.3.565-.15.288-.139.266.4-.063a4.174 4.174 0 0 1-1.512 1.2l-.1-.61-.438.446-.615-.117.3.565c-.07.015-.141.028-.212.038a2.214 2.214 0 0 1-1.673-.288 1.4 1.4 0 0 1-.149-.142l.042-.317.569-.273-.576-.287-.064-.407-.035-.218-.215.219-.177.18a2 2 0 0 1-.016-.179 2.81 2.81 0 0 1 .168-1.139 2.2 2.2 0 0 1 .1-.214l.066-.01.451.459.084-.626.568-.272-.531-.254a6.6 6.6 0 0 1 .772-.432c.122-.061.247-.124.375-.192l-.051.1.625-.1.452.458.083-.625.569-.273-.576-.287c.118-.1.237-.21.356-.332a6.75 6.75 0 0 0 .855-1.136l.425.433.084-.625.569-.273-.576-.288-.028-.176a5.39 5.39 0 0 0 .415-1.738l.238.242.084-.625.569-.273-.576-.287-.1-.625-.314.319a1 1 0 0 0-.017-.075 4.51 4.51 0 0 0-.65-1.477v-.031l.568-.273-.575-.287-.1-.625-.438.446-.118-.022a6.34 6.34 0 0 0-1.32-.99l.517-.248-.576-.288-.1-.625-.439.446-.631-.115.193.358a7 7 0 0 0-1.434-.318l-.5-.251-.1-.625L14.8 4l-.631-.116.281.522h-.013a3.96 3.96 0 0 0-1.839.6l-.04-.02-.1-.626-.438.446-.636-.106.3.565-.289.555.5-.078a2.858 2.858 0 0 0-.359 1.723l-.075.076-.632-.115.3.565-.289.555.626-.1.366.372a3.53 3.53 0 0 0 .915 1.352l.213.395-.289.554.626-.1.451.459.035-.263a2.67 2.67 0 0 1 .378.755 3.66 3.66 0 0 1 .164 1.159l-.519-.094.305.565-.288.555.382-.061a4.6 4.6 0 0 1-.157.521 4.15 4.15 0 0 1-.255.565l-.032-.2-.438.446-.632-.115.309.559-.261.5a2.5 2.5 0 0 1-.343.19 2.8 2.8 0 0 1-.654.2l-.322-.16-.1-.625-.438.445-.632-.12.217.4a1.89 1.89 0 0 1-.784-.436 1.5 1.5 0 0 1-.229-.273l.014.015.084-.626.569-.273-.576-.287-.1-.625-.338.344c-.008-.161-.014-.333-.019-.516-.009-.308-.018-.6-.025-.872l.382.388.084-.625.569-.273-.576-.287-.1-.625-.385.392c-.013-.566-.023-1.041-.032-1.442v-.077l.233.237.084-.625.568-.273-.575-.287-.1-.626-.245.252a3.93 3.93 0 0 0-.2-1.338l-.02-.066.015-.108.569-.268-.576-.287-.1-.626-.345.352A6.48 6.48 0 0 0 7.3 5.6l.562-.269-.572-.293-.1-.625-.438.446-.578-.106a1.984 1.984 0 0 0-1.293-.212 1.4 1.4 0 0 0-.146.038l-.082-.517-.438.446-.632-.115.3.565-.283.554a3.55 3.55 0 0 0-.451.98l-.049.054-.631-.115.304.569-.289.554.55-.086a3.5 3.5 0 0 0 .535 1.608l-.337-.061.3.565-.289.555.625-.1.452.459.043-.327.016.019a4.2 4.2 0 0 0 .727.716 2.9 2.9 0 0 1 .392.358l-.436-.08.3.566-.289.554.626-.1.451.458.044-.326a4.17 4.17 0 0 1 .441 1.7l-.048.048-.631-.115.3.565-.289.555.586-.093a3.33 3.33 0 0 1-.752 1.654l-.088-.553-.438.446-.632-.115.3.565-.2.388-.089.033a3.19 3.19 0 0 1-1.135.169l-.309-.169-.041-.021-.1-.625-.438.446L2 17.1l.305.565-.289.554.625-.1.452.459.083-.626.458-.219a3.26 3.26 0 0 0 1.192-.216l.474-.075.451.459.067-.5.016-.127L6.4 17l-.483-.241a3.424 3.424 0 0 0 .79-1.674l.348.354.084-.625.569-.273-.576-.287-.1-.626-.242.246a4.43 4.43 0 0 0-.55-1.814v-.028l.568-.273-.575-.287-.1-.625-.417.424a2.86 2.86 0 0 0-.511-.494 4.12 4.12 0 0 1-.7-.693L4.4 9.952l.011-.086.569-.273-.58-.287-.1-.626-.438.446-.087-.015a3.544 3.544 0 0 1-.58-1.57l.363.37.084-.626.569-.272-.576-.288-.1-.625-.133.135a3.32 3.32 0 0 1 .415-.758l.4-.063.452.459.083-.626.569-.272-.512-.256c.032-.009.065-.018.1-.025a1.913 1.913 0 0 1 1.323.266l.188.349-.288.554.625-.1.451.459.059-.437a6.44 6.44 0 0 1 .909 1.234l-.593-.108.3.565-.288.555.625-.1.451.459.02-.151a5.46 5.46 0 0 1 .118 1.192l-.043.043-.632-.115.3.565-.289.555.626-.1.057.059.006.244c.008.407.018.893.032 1.473l-.528-.1.3.566-.289.554.551-.075c.007.291.016.6.026.932.006.211.012.412.023.6l-.578-.105.3.565-.288.554.625-.1.1.1a1.73 1.73 0 0 0 .457.729 2.094 2.094 0 0 0 .971.5l-.259.5-.02.039.251-.04.374-.059.056.058.395.4.054-.4.03-.222.583-.268-.027-.013A2.68 2.68 0 0 0 13 16.379l.335-.053.451.459.084-.625.568-.273-.576-.288-.027-.171a4.35 4.35 0 0 0 .362-.761 4.6 4.6 0 0 0 .176-.6l.077-.012.451.459.084-.625.569-.273-.576-.288-.1-.625-.394.4a3.78 3.78 0 0 0-.172-1.183 2.8 2.8 0 0 0-.5-.929l.018-.142.569-.272-.576-.288-.1-.625-.438.446-.457-.083a3.37 3.37 0 0 1-.883-1.354l.054-.4.576-.273L12 7.716l-.1-.626-.211.215a2.64 2.64 0 0 1 .377-1.544l.409.416.083-.625.569-.273-.373-.186a3.856 3.856 0 0 1 1.651-.521l-.227.437.625-.1.451.459.084-.625.35-.168a6.85 6.85 0 0 1 1.69.383l-.289.554.625-.1.451.459.068-.508a6.2 6.2 0 0 1 1.106.8l-.229-.043.3.565-.289.554.626-.1.453.461.047-.354a4.34 4.34 0 0 1 .53 1.273c.013.055.025.11.035.164l-.622-.113.3.565-.289.554.625-.1.063.064a5.04 5.04 0 0 1-.314 1.586l-.015-.139-.438.446-.631-.115.3.565-.288.555.469-.074a6.4 6.4 0 0 1-.785 1.027c-.091.094-.182.18-.273.26l-.07-.44-.438.446-.632-.116.3.566-.107.205c-.2.113-.392.21-.577.3a6.7 6.7 0 0 0-.768.429l-.081-.506-.438.446-.632-.115.3.565-.271.556.371-.058c-.019.041-.037.084-.054.128a2.93 2.93 0 0 0-.182 1.2c0 .069.009.138.018.2l-.52-.095.3.566-.289.554.626-.1.451.458.015-.112c.025.024.05.046.077.068a2.034 2.034 0 0 0 1.265.363 3.5 3.5 0 0 0 .53-.042c.032 0 .064-.01.1-.016l-.194.372.625-.1.452.459.083-.625.569-.273-.416-.208a4.31 4.31 0 0 0 1.573-1.328l.452.459.083-.626.565-.272Zm-.491.615-.474.075.219-.42-.228-.422.472.086.332-.338.075.474.433.216-.427.2-.063.47zm-2.26 1.975-.473.075.218-.42-.228-.422.472.086.332-.338.075.474.433.216-.427.2-.063.469zm-3.121-1.338-.228-.423.473.087.331-.338.076.474.432.215-.427.205-.063.47-.339-.345-.473.075zm.351-2.5-.227-.422.472.086.331-.338.076.474.432.216-.427.205-.062.469-.34-.345-.473.075zm2.07-1.75.472.087.332-.338.075.474.433.216-.427.2-.063.47-.339-.345-.473.075.218-.42zm1.941-1.8-.228-.422.472.086.332-.338.075.474.433.216-.427.205-.063.469-.339-.345-.474.075zm.957-2.512-.474.075.219-.42-.228-.422.472.086.332-.338.075.474.433.216-.427.2-.063.47zm-1.082-2.445-.474.075.218-.42-.227-.423.472.087.331-.338.076.474.432.216-.427.2-.062.47ZM17.754 5.3l-.474.075.219-.42-.228-.422.472.086.332-.338.075.474.433.216-.427.2-.063.47zm-2.912-.5-.474.074.219-.419-.228-.423.472.086.332-.337.075.473.433.216-.427.205-.063.47zm-2.78.808-.473.074.218-.42-.228-.422.473.086.331-.337.076.473.432.216-.427.205-.063.469zm-.214 3.07-.339-.344-.474.074.219-.42-.228-.422.472.086.331-.337.076.473.433.212-.427.205Zm1.812 1.208.076.474.432.216-.427.205-.063.469-.339-.345-.473.075.218-.42-.228-.422.473.086zm.831 4.056-.474.075.219-.42-.228-.422.472.086.332-.338.075.474.433.216-.427.205-.063.469zm-.719 1.727.432.216-.427.205-.062.469-.34-.345-.473.075.218-.42-.227-.422.472.086.335-.333Zm-2.014 1.212-.427.2-.063.469-.339-.344-.474.074.219-.42-.228-.422.472.086.332-.337.075.473zM8.8 15.093l-.228-.422.472.086.332-.338.075.474.433.216-.427.2-.063.47-.339-.345-.474.075zm-.023-2.466-.229-.427.472.087.332-.338.075.473.433.216-.427.205-.063.47-.339-.345-.474.074Zm-.208-2.7L8.34 9.5l.472.086.331-.337.076.473.433.216-.427.205-.063.469-.339-.344-.474.074Zm-.3-2.1-.476.073.219-.42-.228-.422.472.086.332-.344.075.473.433.216-.427.211-.063.469ZM6.8 5.653l-.474.075.219-.42-.228-.422.472.086.332-.338.075.474.433.216-.429.205L7.138 6ZM4.261 5.3l-.473.075.218-.42-.228-.422.472.086.332-.338.076.474.432.216-.427.2-.063.47ZM2.672 7.415 2.891 7l-.228-.422.472.086.332-.338.075.474.433.216-.427.2-.063.47-.339-.346ZM4.231 8.9l.075.473.433.216-.427.211-.063.469-.339-.349-.473.075.218-.42-.228-.422.472.086Zm1.916 3.06-.062.47-.339-.345-.474.075.219-.42-.228-.423.472.087.331-.338.076.474.432.216zm.5 2.907-.474.074.219-.42-.231-.421.472.086.332-.337.075.473.433.216-.427.205-.063.469zM5.738 17.2l-.062.469-.34-.345-.473.075.218-.42-.227-.422.472.086.331-.337.076.473.432.221Zm-2.231.472-.427.2-.063.469L2.678 18l-.473.075.218-.42-.228-.422.473.086.332-.334.076.474Z"/></svg>

<?xml version="1.0" encoding="UTF-8"?>
<svg width="24px" fill="#44739e" height="24px" viewBox="0 0 24 24" version="1.1" xmlns="http://www.w3.org/2000/svg" xmlns:xlink="http://www.w3.org/1999/xlink">
            <path d="m 21.424,16.784 -0.1,-0.625 -0.438,0.446 -0.632,-0.115 0.3,0.565 -0.15,0.288 -0.139,0.266 0.4,-0.063 a 4.174,4.174 0 0 1 -1.512,1.2 l -0.1,-0.61 -0.438,0.446 L 18,18.465 18.3,19.03 v 0 c -0.07,0.015 -0.141,0.028 -0.212,0.038 A 2.214,2.214 0 0 1 16.415,18.78 1.429,1.429 0 0 1 16.266,18.638 l 0.042,-0.317 0.569,-0.273 -0.576,-0.287 -0.064,-0.407 -0.035,-0.218 -0.215,0.219 -0.177,0.18 c -0.008,-0.059 -0.013,-0.119 -0.016,-0.179 a 2.812,2.812 0 0 1 0.168,-1.139 2.226,2.226 0 0 1 0.1,-0.214 l 0.066,-0.01 0.451,0.459 0.084,-0.626 0.568,-0.272 L 16.7,15.3 a 6.575,6.575 0 0 1 0.772,-0.432 c 0.122,-0.061 0.247,-0.124 0.375,-0.192 l -0.051,0.1 0.625,-0.1 0.452,0.458 0.083,-0.625 0.569,-0.273 -0.576,-0.287 v 0 c 0.118,-0.1 0.237,-0.21 0.356,-0.332 a 6.749,6.749 0 0 0 0.855,-1.136 l 0.425,0.433 0.084,-0.625 0.569,-0.273 -0.576,-0.288 -0.028,-0.176 A 5.392,5.392 0 0 0 21.049,9.814 L 21.287,10.056 21.371,9.431 21.94,9.158 21.364,8.871 21.264,8.246 20.95,8.565 C 20.945,8.54 20.94,8.515 20.933,8.49 A 4.509,4.509 0 0 0 20.283,7.013 V 6.982 L 20.851,6.709 20.276,6.422 20.176,5.797 19.738,6.243 19.62,6.221 A 6.339,6.339 0 0 0 18.3,5.231 L 18.817,4.983 18.241,4.695 18.141,4.07 17.702,4.516 17.071,4.401 17.264,4.759 A 7,7 0 0 0 15.83,4.441 L 15.33,4.19 15.23,3.565 14.8,4 14.169,3.884 14.45,4.406 h -0.013 a 3.961,3.961 0 0 0 -1.839,0.6 L 12.558,4.986 12.458,4.36 12.02,4.806 11.384,4.7 l 0.3,0.565 -0.289,0.555 0.5,-0.078 a 2.858,2.858 0 0 0 -0.359,1.723 l -0.075,0.076 -0.632,-0.115 0.3,0.565 -0.289,0.555 0.626,-0.1 0.366,0.372 a 3.533,3.533 0 0 0 0.915,1.352 l 0.213,0.395 -0.289,0.554 0.626,-0.1 0.451,0.459 0.035,-0.263 a 2.666,2.666 0 0 1 0.378,0.755 3.664,3.664 0 0 1 0.164,1.159 l -0.519,-0.094 0.305,0.565 -0.288,0.555 0.382,-0.061 a 4.584,4.584 0 0 1 -0.157,0.521 4.147,4.147 0 0 1 -0.255,0.565 l -0.032,-0.2 -0.438,0.446 -0.632,-0.115 0.309,0.559 -0.261,0.5 a 2.516,2.516 0 0 1 -0.343,0.19 2.787,2.787 0 0 1 -0.654,0.2 L 11.42,16.6 11.32,15.975 10.882,16.42 10.25,16.3 10.467,16.7 A 1.892,1.892 0 0 1 9.683,16.264 1.5,1.5 0 0 1 9.454,15.991 L 9.468,16.006 9.552,15.38 10.121,15.107 9.545,14.82 9.445,14.195 9.107,14.539 C 9.099,14.378 9.093,14.206 9.088,14.023 9.079,13.715 9.07,13.423 9.063,13.151 l 0.382,0.388 0.084,-0.625 0.569,-0.273 -0.576,-0.287 -0.1,-0.625 -0.385,0.392 C 9.024,11.555 9.014,11.08 9.005,10.679 V 10.602 L 9.238,10.839 9.322,10.214 9.89,9.941 9.315,9.654 9.215,9.028 8.97,9.28 A 3.932,3.932 0 0 0 8.77,7.942 L 8.75,7.876 8.765,7.768 9.334,7.5 8.758,7.213 8.658,6.587 8.313,6.939 A 6.477,6.477 0 0 0 7.3,5.6 L 7.862,5.331 7.29,5.038 7.19,4.413 6.752,4.859 6.174,4.753 A 1.984,1.984 0 0 0 4.881,4.541 1.421,1.421 0 0 0 4.735,4.579 L 4.653,4.062 4.215,4.508 3.583,4.393 3.883,4.958 3.6,5.512 v 0 A 3.547,3.547 0 0 0 3.149,6.492 L 3.1,6.546 2.469,6.431 2.773,7 2.484,7.554 3.034,7.468 a 3.5,3.5 0 0 0 0.535,1.608 l -0.337,-0.061 0.3,0.565 -0.289,0.555 0.625,-0.1 0.452,0.459 0.043,-0.327 0.016,0.019 a 4.2,4.2 0 0 0 0.727,0.716 2.9,2.9 0 0 1 0.392,0.358 l -0.436,-0.08 0.3,0.566 -0.289,0.554 0.626,-0.1 0.451,0.458 0.044,-0.326 a 4.166,4.166 0 0 1 0.441,1.7 l -0.048,0.048 -0.631,-0.115 0.3,0.565 -0.289,0.555 0.586,-0.093 a 3.331,3.331 0 0 1 -0.752,1.654 l -0.088,-0.553 -0.438,0.446 -0.632,-0.115 0.3,0.565 -0.2,0.388 -0.089,0.033 A 3.19,3.19 0 0 1 3.519,17.579 L 3.21,17.41 3.169,17.389 3.069,16.764 2.631,17.21 2,17.1 l 0.305,0.565 -0.289,0.554 0.625,-0.1 0.452,0.459 0.083,-0.626 0.458,-0.219 A 3.26,3.26 0 0 0 4.826,17.517 L 5.3,17.442 5.751,17.901 5.818,17.401 5.834,17.274 6.4,17 5.917,16.759 a 3.424,3.424 0 0 0 0.79,-1.674 L 7.055,15.439 7.139,14.814 7.708,14.541 7.132,14.254 7.032,13.628 6.79,13.874 A 4.43,4.43 0 0 0 6.24,12.06 V 12.032 L 6.808,11.759 6.233,11.472 6.133,10.847 5.716,11.271 A 2.861,2.861 0 0 0 5.205,10.777 4.117,4.117 0 0 1 4.505,10.084 L 4.4,9.952 4.411,9.866 4.98,9.593 4.4,9.306 4.3,8.68 3.862,9.126 3.775,9.111 A 3.544,3.544 0 0 1 3.195,7.541 L 3.558,7.911 3.642,7.285 4.211,7.013 3.635,6.725 3.535,6.1 3.402,6.235 A 3.318,3.318 0 0 1 3.817,5.477 L 4.217,5.414 4.669,5.873 4.752,5.247 5.321,4.975 4.809,4.719 C 4.841,4.71 4.874,4.701 4.909,4.694 A 1.913,1.913 0 0 1 6.232,4.96 L 6.42,5.309 6.132,5.863 6.757,5.763 7.208,6.222 7.267,5.785 A 6.437,6.437 0 0 1 8.176,7.019 L 7.583,6.911 7.883,7.476 7.595,8.031 8.22,7.931 8.671,8.39 8.691,8.239 A 5.457,5.457 0 0 1 8.809,9.431 L 8.766,9.474 8.134,9.359 l 0.3,0.565 -0.289,0.555 0.626,-0.1 0.057,0.059 0.006,0.244 c 0.008,0.407 0.018,0.893 0.032,1.473 l -0.528,-0.1 0.3,0.566 L 8.349,13.175 8.9,13.1 c 0.007,0.291 0.016,0.6 0.026,0.932 0.006,0.211 0.012,0.412 0.023,0.6 l -0.578,-0.105 0.3,0.565 -0.288,0.554 0.625,-0.1 0.1,0.1 a 1.729,1.729 0 0 0 0.457,0.729 2.094,2.094 0 0 0 0.971,0.5 l -0.259,0.5 -0.02,0.039 0.251,-0.04 0.374,-0.059 0.056,0.058 0.395,0.4 0.054,-0.4 0.03,-0.222 L 12,16.883 11.973,16.87 A 2.68,2.68 0 0 0 13,16.379 l 0.335,-0.053 0.451,0.459 0.084,-0.625 0.568,-0.273 -0.576,-0.288 -0.027,-0.171 a 4.345,4.345 0 0 0 0.362,-0.761 4.628,4.628 0 0 0 0.176,-0.6 l 0.077,-0.012 0.451,0.459 0.084,-0.625 0.569,-0.273 -0.576,-0.288 -0.1,-0.625 -0.394,0.4 a 3.779,3.779 0 0 0 -0.172,-1.183 2.8,2.8 0 0 0 -0.5,-0.929 l 0.018,-0.142 0.569,-0.272 -0.576,-0.288 -0.1,-0.625 -0.438,0.446 -0.457,-0.083 A 3.373,3.373 0 0 1 11.945,8.673 L 11.999,8.273 12.575,8 12,7.716 11.9,7.09 11.689,7.305 a 2.638,2.638 0 0 1 0.377,-1.544 v 0 l 0.409,0.416 0.083,-0.625 0.569,-0.273 -0.373,-0.186 a 3.856,3.856 0 0 1 1.651,-0.521 l -0.227,0.437 0.625,-0.1 0.451,0.459 0.084,-0.625 0.35,-0.168 a 6.845,6.845 0 0 1 1.69,0.383 v 0 l -0.289,0.554 0.625,-0.1 0.451,0.459 0.068,-0.508 a 6.2,6.2 0 0 1 1.106,0.8 L 19.11,6.12 19.41,6.685 19.121,7.239 19.747,7.139 20.2,7.6 20.247,7.246 a 4.342,4.342 0 0 1 0.53,1.273 c 0.013,0.055 0.025,0.11 0.035,0.164 L 20.19,8.57 l 0.3,0.565 -0.289,0.554 0.625,-0.1 0.063,0.064 a 5.041,5.041 0 0 1 -0.314,1.586 L 20.56,11.1 l -0.438,0.446 -0.631,-0.115 0.3,0.565 -0.288,0.555 0.469,-0.074 a 6.393,6.393 0 0 1 -0.785,1.027 c -0.091,0.094 -0.182,0.18 -0.273,0.26 l -0.07,-0.44 -0.438,0.446 -0.632,-0.116 0.3,0.566 -0.107,0.205 c -0.2,0.113 -0.392,0.21 -0.577,0.3 a 6.716,6.716 0 0 0 -0.768,0.429 l -0.081,-0.506 -0.438,0.446 -0.632,-0.115 0.3,0.565 -0.271,0.556 0.371,-0.058 c -0.019,0.041 -0.037,0.084 -0.054,0.128 a 2.929,2.929 0 0 0 -0.182,1.2 c 0,0.069 0.009,0.138 0.018,0.2 l -0.52,-0.095 0.3,0.566 -0.289,0.554 0.626,-0.1 0.451,0.458 0.015,-0.112 c 0.025,0.024 0.05,0.046 0.077,0.068 a 2.034,2.034 0 0 0 1.265,0.363 3.478,3.478 0 0 0 0.53,-0.042 c 0.032,0 0.064,-0.01 0.1,-0.016 l -0.194,0.372 0.625,-0.1 0.452,0.459 0.083,-0.625 0.569,-0.273 -0.416,-0.208 A 4.312,4.312 0 0 0 20.9,17.511 L 21.352,17.97 21.435,17.344 22,17.072 Z m -0.491,0.615 -0.474,0.075 0.219,-0.42 -0.228,-0.422 0.472,0.086 0.332,-0.338 0.075,0.474 0.433,0.216 -0.427,0.2 -0.063,0.47 z m -2.26,1.975 -0.473,0.075 0.218,-0.42 -0.228,-0.422 0.472,0.086 0.332,-0.338 0.075,0.474 0.433,0.216 -0.427,0.2 -0.063,0.469 z m -3.121,-1.338 -0.228,-0.423 0.473,0.087 0.331,-0.338 0.076,0.474 0.432,0.215 -0.427,0.205 -0.063,0.47 -0.339,-0.345 -0.473,0.075 z m 0.351,-2.5 -0.227,-0.422 0.472,0.086 0.331,-0.338 0.076,0.474 0.432,0.216 -0.427,0.205 -0.062,0.469 -0.34,-0.345 -0.473,0.075 z m 2.07,-1.75 0.472,0.087 0.332,-0.338 0.075,0.474 0.433,0.216 -0.427,0.2 -0.063,0.47 -0.339,-0.345 -0.473,0.075 0.218,-0.42 z m 1.941,-1.8 -0.228,-0.422 0.472,0.086 0.332,-0.338 0.075,0.474 0.433,0.216 -0.427,0.205 -0.063,0.469 -0.339,-0.345 -0.474,0.075 z m 0.957,-2.512 -0.474,0.075 0.219,-0.42 -0.228,-0.422 0.472,0.086 0.332,-0.338 0.075,0.474 0.433,0.216 -0.427,0.2 -0.063,0.47 z M 19.789,7.029 19.315,7.104 19.533,6.684 19.306,6.261 19.778,6.348 20.109,6.01 20.185,6.484 20.617,6.7 20.19,6.9 20.128,7.37 Z M 17.754,5.3 17.28,5.375 l 0.219,-0.42 -0.228,-0.422 0.472,0.086 0.332,-0.338 0.075,0.474 0.433,0.216 -0.427,0.2 -0.063,0.47 z m -2.912,-0.5 -0.474,0.074 0.219,-0.419 -0.228,-0.423 0.472,0.086 0.332,-0.337 0.075,0.473 0.433,0.216 -0.427,0.205 -0.063,0.47 z m -2.78,0.808 -0.473,0.074 0.218,-0.42 -0.228,-0.422 0.473,0.086 0.331,-0.337 0.076,0.473 0.432,0.216 -0.427,0.205 -0.063,0.469 z M 11.848,8.678 11.509,8.334 11.035,8.408 11.254,7.988 11.026,7.566 11.498,7.652 11.829,7.315 11.905,7.788 12.338,8 11.911,8.205 Z m 1.812,1.208 0.076,0.474 0.432,0.216 -0.427,0.205 -0.063,0.469 -0.339,-0.345 -0.473,0.075 0.218,-0.42 -0.228,-0.422 0.473,0.086 z m 0.831,4.056 -0.474,0.075 0.219,-0.42 -0.228,-0.422 0.472,0.086 0.332,-0.338 0.075,0.474 0.433,0.216 -0.427,0.205 -0.063,0.469 z m -0.719,1.727 0.432,0.216 -0.427,0.205 -0.062,0.469 -0.34,-0.345 -0.473,0.075 0.218,-0.42 -0.227,-0.422 0.472,0.086 L 13.7,15.2 Z m -2.014,1.212 -0.427,0.2 -0.063,0.469 -0.339,-0.344 -0.474,0.074 0.219,-0.42 -0.228,-0.422 0.472,0.086 0.332,-0.337 0.075,0.473 z M 8.8,15.093 8.572,14.671 l 0.472,0.086 0.332,-0.338 0.075,0.474 0.433,0.216 -0.427,0.2 -0.063,0.47 -0.339,-0.345 -0.474,0.075 z M 8.777,12.627 8.548,12.2 9.02,12.287 9.352,11.949 9.427,12.422 9.86,12.638 9.433,12.843 9.37,13.313 9.031,12.968 8.557,13.042 Z M 8.569,9.927 8.34,9.5 8.812,9.586 9.143,9.249 9.219,9.722 9.652,9.938 9.225,10.143 9.162,10.612 8.823,10.268 8.349,10.342 Z M 8.269,7.827 7.793,7.9 8.012,7.48 7.784,7.058 8.256,7.144 8.588,6.8 8.663,7.273 9.096,7.489 8.669,7.7 8.606,8.169 Z M 6.8,5.653 6.326,5.728 6.545,5.308 6.317,4.886 6.789,4.972 7.121,4.634 7.196,5.108 7.629,5.324 7.2,5.529 7.138,6 Z M 4.261,5.3 3.788,5.375 4.006,4.955 3.778,4.533 4.25,4.619 4.582,4.281 4.658,4.755 5.09,4.971 4.663,5.171 4.6,5.641 Z M 2.672,7.415 2.891,7 2.663,6.578 3.135,6.664 3.467,6.326 3.542,6.8 3.975,7.016 3.548,7.216 3.485,7.686 3.146,7.34 Z M 4.231,8.9 4.306,9.373 4.739,9.589 4.312,9.8 4.249,10.269 3.91,9.92 3.437,9.995 3.655,9.575 3.427,9.153 3.899,9.239 Z m 1.916,3.06 -0.062,0.47 -0.339,-0.345 -0.474,0.075 0.219,-0.42 -0.228,-0.423 0.472,0.087 0.331,-0.338 0.076,0.474 0.432,0.216 z m 0.5,2.907 -0.474,0.074 0.219,-0.42 -0.231,-0.421 0.472,0.086 0.332,-0.337 0.075,0.473 0.433,0.216 -0.427,0.205 -0.063,0.469 z M 5.738,17.2 5.676,17.669 5.336,17.324 4.863,17.399 5.081,16.979 4.854,16.557 5.326,16.643 5.657,16.306 5.733,16.779 6.165,17 Z M 3.507,17.672 3.08,17.872 3.017,18.341 2.678,18 2.205,18.075 2.423,17.655 2.195,17.233 2.668,17.319 3,16.985 3.076,17.459 Z"/>

</svg>
